X:1
T:Last Winter Was a Hard One
M:2/4
L:1/8
K:F
 D| GG GA|G-F D D/2D/2| Bc dB| c3 c| dd dd| G G2 G| GA G/2G/2 F| D3|\
 D| GG G/2G/2 A| GF D2| Bc dB| c4| dd dd| G G2 G/2G/2| GA GF| G4| dd dB|\
 c d2 d| GA GF| D4| dd dd| d/2 G3/2 G3/2 G/2| BG AG| D4| GG AG| D4|\
 Bc dB| c3 c| d d/2d/2 dd| G/2 G2- G/2G/2 G/2| GA GF| G3||
